WPMap/assets/css/svg/icon_member.svg

<svg width="48" height="56" viewBox="0 0 48 56" fill="none" xmlns="http://www.w3.org/2000/svg">
<path d="M28.6604 56H20.3562H0C0 56 0.503129 44.9774 1.25654 39.4052C2.43863 32.6306 14.5869 28.2216 14.5869 28.2216L17.6121 27.3579C18.2025 27.5631 21.8335 28.6725 24.3748 28.6617C26.6658 28.6522 29.8553 27.5428 30.3867 27.3579L33.4131 28.2216C33.4131 28.2216 45.9888 32.6306 46.7435 39.4052C47.4969 44.9774 48 56 48 56H28.6604ZM24.9421 23.9568H24.6276H23.1837H22.8692C22.8692 23.9568 15.081 22.2462 15.081 18.374C15.081 11.2641 13.0698 8.04323 15.081 5.00485C17.2103 0.88568 21.3714 0.109086 22.8692 0.0160382V0.000530189H23.1837H23.2607C23.33 -0.000662736 23.3711 0.000530189 23.3711 0.000530189H23.5752C23.6445 -0.000662736 23.6855 0.000530189 23.6855 0.000530189H24.1258C24.1258 0.000530189 24.1669 -0.000662736 24.2362 0.000530189H24.439C24.439 0.000530189 24.4813 -0.000662736 24.5506 0.000530189H24.6276H24.9421V0.0160382C27.2357 0.109086 30.5997 0.88568 32.9844 5.00485C34.7415 8.04323 32.9844 11.2641 32.9844 18.374C32.9844 22.2462 24.9421 23.9568 24.9421 23.9568Z" fill="black"/>
</svg>

<svg xmlns="http://www.w3.org/2000/svg" width="48" height="56" fill="none"><path fill="#000" d="M28.66 56H0s.503-11.023 1.257-16.595c1.182-6.774 13.33-11.183 13.33-11.183l3.025-.864c.59.205 4.222 1.314 6.763 1.304 2.29-.01 5.48-1.12 6.012-1.304l3.026.864s12.576 4.409 13.33 11.183C47.497 44.977 48 56 48 56H28.66Zm-3.718-32.043H22.87s-7.788-1.71-7.788-5.583c0-7.11-2.011-10.33 0-13.37C17.211.887 21.371.11 22.869.017V.001h.392c.069-.002.11 0 .11 0h.204c.07-.002.11 0 .11 0h.44s.042-.002.111 0h.203s.042-.002.112 0h.391v.015c2.294.093 5.658.87 8.042 4.989 1.758 3.038 0 6.26 0 13.369 0 3.872-8.042 5.583-8.042 5.583Z"/></svg>
